icons/global/user-settings/log-out.svg

<svg xmlns="http://www.w3.org/2000/svg" width="24" height="24" fill="none">
  <path fill="#000" d="M18 2H7c-1.103 0-2 .898-2 2v7h7.59l-2.297-2.292 1.413-1.416 4.708 4.699-4.706 4.715-1.416-1.412L12.582 13H5v7c0 1.103.897 2 2 2h11c1.103 0 2-.897 2-2V4c0-1.102-.897-2-2-2Z"/>
</svg>

<svg width="24" height="24" viewBox="0 0 24 24" fill="none" xmlns="http://www.w3.org/2000/svg">
<path d="M18 2H7C5.897 2 5 2.898 5 4V11H12.59L10.293 8.708L11.706 7.292L16.414 11.991L11.708 16.706L10.292 15.294L12.582 13H5V20C5 21.103 5.897 22 7 22H18C19.103 22 20 21.103 20 20V4C20 2.898 19.103 2 18 2Z" fill="black"/>
</svg>
